Numix-Circle/48x48/apps/clipgrab.svg

<?xml version="1.0" encoding="UTF-8" standalone="no"?>
<svg
   xmlns:dc="http://purl.org/dc/elements/1.1/"
   xmlns:cc="http://creativecommons.org/ns#"
   xmlns:rdf="http://www.w3.org/1999/02/22-rdf-syntax-ns#"
   xmlns:svg="http://www.w3.org/2000/svg"
   xmlns="http://www.w3.org/2000/svg"
   xmlns:xlink="http://www.w3.org/1999/xlink"
   xmlns:sodipodi="http://sodipodi.sourceforge.net/DTD/sodipodi-0.dtd"
   xmlns:inkscape="http://www.inkscape.org/namespaces/inkscape"
   viewBox="0 0 48 48"
   id="svg2"
   version="1.1"
   inkscape:version="0.48.4 r9939"
   width="100%"
   height="100%"
   sodipodi:docname="clipgrab.svg">
  <metadata
     id="metadata73">
    <rdf:RDF>
      <cc:Work
         rdf:about="">
        <dc:format>image/svg+xml</dc:format>
        <dc:type
           rdf:resource="http://purl.org/dc/dcmitype/StillImage" />
      </cc:Work>
    </rdf:RDF>
  </metadata>
  <sodipodi:namedview
     pagecolor="#ffffff"
     bordercolor="#666666"
     borderopacity="1"
     objecttolerance="10"
     gridtolerance="10"
     guidetolerance="10"
     inkscape:pageopacity="0"
     inkscape:pageshadow="2"
     inkscape:window-width="1280"
     inkscape:window-height="960"
     id="namedview71"
     showgrid="false"
     inkscape:zoom="13.906433"
     inkscape:cx="10.291929"
     inkscape:cy="28.407715"
     inkscape:window-x="0"
     inkscape:window-y="0"
     inkscape:window-maximized="1"
     inkscape:current-layer="svg2" />
  <defs
     id="defs4">
    <linearGradient
       id="linearGradient3764"
       x1="1"
       x2="47"
       gradientUnits="userSpaceOnUse"
       gradientTransform="matrix(0,-1,1,0,-1.5e-6,47.999998)">
      <stop
         stop-color="#23a0bf"
         stop-opacity="1"
         id="stop7" />
      <stop
         offset="1"
         stop-color="#26aed0"
         stop-opacity="1"
         id="stop9" />
    </linearGradient>
    <clipPath
       id="clipPath-095675888">
      <g
         transform="translate(0,-1004.3622)"
         id="g12">
        <path
           d="m -24 13 c 0 1.105 -0.672 2 -1.5 2 -0.828 0 -1.5 -0.895 -1.5 -2 0 -1.105 0.672 -2 1.5 -2 0.828 0 1.5 0.895 1.5 2 z"
           transform="matrix(15.333333,0,0,11.5,414.99999,878.8622)"
           fill="#1890d0"
           id="path14" />
      </g>
    </clipPath>
    <clipPath
       id="clipPath-107173793">
      <g
         transform="translate(0,-1004.3622)"
         id="g17">
        <path
           d="m -24 13 c 0 1.105 -0.672 2 -1.5 2 -0.828 0 -1.5 -0.895 -1.5 -2 0 -1.105 0.672 -2 1.5 -2 0.828 0 1.5 0.895 1.5 2 z"
           transform="matrix(15.333333,0,0,11.5,414.99999,878.8622)"
           fill="#1890d0"
           id="path19" />
      </g>
    </clipPath>
    <linearGradient
       inkscape:collect="always"
       xlink:href="#linearGradient3764"
       id="linearGradient3207"
       gradientUnits="userSpaceOnUse"
       gradientTransform="matrix(0,-1,1,0,-1.5e-6,47.999998)"
       x1="1"
       x2="47" />
    <linearGradient
       inkscape:collect="always"
       xlink:href="#linearGradient3764"
       id="linearGradient3210"
       gradientUnits="userSpaceOnUse"
       gradientTransform="matrix(0,-1,1,0,-1.5e-6,47.999998)"
       x1="1"
       x2="47" />
  </defs>
  <g
     id="g21">
    <path
       d="m 36.31 5 c 5.859 4.062 9.688 10.831 9.688 18.5 c 0 12.426 -10.07 22.5 -22.5 22.5 c -7.669 0 -14.438 -3.828 -18.5 -9.688 c 1.037 1.822 2.306 3.499 3.781 4.969 c 4.085 3.712 9.514 5.969 15.469 5.969 c 12.703 0 23 -10.298 23 -23 c 0 -5.954 -2.256 -11.384 -5.969 -15.469 c -1.469 -1.475 -3.147 -2.744 -4.969 -3.781 z m 4.969 3.781 c 3.854 4.113 6.219 9.637 6.219 15.719 c 0 12.703 -10.297 23 -23 23 c -6.081 0 -11.606 -2.364 -15.719 -6.219 c 4.16 4.144 9.883 6.719 16.219 6.719 c 12.703 0 23 -10.298 23 -23 c 0 -6.335 -2.575 -12.06 -6.719 -16.219 z"
       opacity="0.05"
       id="path23" />
    <path
       d="m 41.28 8.781 c 3.712 4.085 5.969 9.514 5.969 15.469 c 0 12.703 -10.297 23 -23 23 c -5.954 0 -11.384 -2.256 -15.469 -5.969 c 4.113 3.854 9.637 6.219 15.719 6.219 c 12.703 0 23 -10.298 23 -23 c 0 -6.081 -2.364 -11.606 -6.219 -15.719 z"
       opacity="0.1"
       id="path25" />
    <path
       d="m 31.25 2.375 c 8.615 3.154 14.75 11.417 14.75 21.13 c 0 12.426 -10.07 22.5 -22.5 22.5 c -9.708 0 -17.971 -6.135 -21.12 -14.75 a 23 23 0 0 0 44.875 -7 a 23 23 0 0 0 -16 -21.875 z"
       opacity="0.2"
       id="path27" />
  </g>
  <path
     style="fill:#26abcf;fill-opacity:1;stroke:none"
     d="M 24.15625 1.625 C 16.260808 1.625 9.3233349 5.6965805 5.34375 11.875 C 5.1694113 11.715611 4.9833328 11.567117 4.8125 11.40625 C 2.4246522 15.026265 1 19.336867 1 24 C 1 36.703 11.297 47 24 47 C 34.689313 47 43.639791 39.694293 46.21875 29.8125 C 46.063868 29.796716 45.905768 29.767245 45.75 29.75 C 46.242081 27.905935 46.53125 25.967888 46.53125 23.96875 C 46.53125 11.617592 36.507408 1.625 24.15625 1.625 z M 47 24 C 47 24.488257 46.96961 24.958876 46.9375 25.4375 C 46.966852 24.96179 47 24.483103 47 24 z "
     id="rect59" />
  <g
     id="g33" />
  <path
     style="fill:#71d5ec;fill-opacity:1;fill-rule:nonzero;stroke:none"
     d="M 10.6875 5.28125 C 10.348288 5.521832 10.012672 5.7731521 9.6875 6.03125 C 10.014732 5.7695018 10.34608 5.5251939 10.6875 5.28125 z M 9.6875 6.03125 C 9.3680941 6.284771 9.0552019 6.5426547 8.75 6.8125 C 9.051985 6.5439469 9.3716617 6.2838842 9.6875 6.03125 z M 6.125 9.5625 C 5.6519234 10.147031 5.1960158 10.743821 4.78125 11.375 C 15.288862 21.288118 32.539907 28.423178 46.25 29.8125 C 46.499562 28.85444 46.685409 27.87683 46.8125 26.875 C 33.57376 25.675477 16.867898 18.982032 6.125 9.5625 z "
     id="path63" />
  <path
     style="fill:#5bccea;fill-opacity:1;fill-rule:nonzero;stroke:none"
     d="M 24 1 C 16.774417 1 10.341472 4.3516558 6.125 9.5625 C 16.867898 18.982032 33.57376 25.675477 46.8125 26.875 C 46.930614 25.930506 47 24.976514 47 24 C 47 11.297 36.703 1 24 1 z "
     id="path61" />
  <g
     id="g67">
    <path
       d="m 40.03 7.531 c 3.712 4.084 5.969 9.514 5.969 15.469 0 12.703 -10.297 23 -23 23 c -5.954 0 -11.384 -2.256 -15.469 -5.969 4.178 4.291 10.01 6.969 16.469 6.969 c 12.703 0 23 -10.298 23 -23 0 -6.462 -2.677 -12.291 -6.969 -16.469 z"
       opacity="0.1"
       id="path69" />
  </g>
</svg>

<svg xmlns="http://www.w3.org/2000/svg" viewBox="0 0 48 48"><defs><clipPath><g transform="translate(0,-1004.3622)"><path d="m -24 13 c 0 1.105 -0.672 2 -1.5 2 -0.828 0 -1.5 -0.895 -1.5 -2 0 -1.105 0.672 -2 1.5 -2 0.828 0 1.5 0.895 1.5 2 z" transform="matrix(15.333333,0,0,11.5,414.99999,878.8622)" fill="#1890d0"/></g></clipPath><clipPath><g transform="translate(0,-1004.3622)"><path d="m -24 13 c 0 1.105 -0.672 2 -1.5 2 -0.828 0 -1.5 -0.895 -1.5 -2 0 -1.105 0.672 -2 1.5 -2 0.828 0 1.5 0.895 1.5 2 z" transform="matrix(15.333333,0,0,11.5,414.99999,878.8622)" fill="#1890d0"/></g></clipPath></defs><g><path d="m 36.31 5 c 5.859 4.062 9.688 10.831 9.688 18.5 c 0 12.426 -10.07 22.5 -22.5 22.5 c -7.669 0 -14.438 -3.828 -18.5 -9.688 c 1.037 1.822 2.306 3.499 3.781 4.969 c 4.085 3.712 9.514 5.969 15.469 5.969 c 12.703 0 23 -10.298 23 -23 c 0 -5.954 -2.256 -11.384 -5.969 -15.469 c -1.469 -1.475 -3.147 -2.744 -4.969 -3.781 z m 4.969 3.781 c 3.854 4.113 6.219 9.637 6.219 15.719 c 0 12.703 -10.297 23 -23 23 c -6.081 0 -11.606 -2.364 -15.719 -6.219 c 4.16 4.144 9.883 6.719 16.219 6.719 c 12.703 0 23 -10.298 23 -23 c 0 -6.335 -2.575 -12.06 -6.719 -16.219 z" opacity="0.05"/><path d="m 41.28 8.781 c 3.712 4.085 5.969 9.514 5.969 15.469 c 0 12.703 -10.297 23 -23 23 c -5.954 0 -11.384 -2.256 -15.469 -5.969 c 4.113 3.854 9.637 6.219 15.719 6.219 c 12.703 0 23 -10.298 23 -23 c 0 -6.081 -2.364 -11.606 -6.219 -15.719 z" opacity="0.1"/><path d="m 31.25 2.375 c 8.615 3.154 14.75 11.417 14.75 21.13 c 0 12.426 -10.07 22.5 -22.5 22.5 c -9.708 0 -17.971 -6.135 -21.12 -14.75 a 23 23 0 0 0 44.875 -7 a 23 23 0 0 0 -16 -21.875 z" opacity="0.2"/></g><path d="m 24.16 1.625 c -7.895 0 -14.833 4.072 -18.813 10.25 c -0.174 -0.159 -0.36 -0.308 -0.531 -0.469 c -2.388 3.62 -3.813 7.931 -3.813 12.594 c 0 12.703 10.297 23 23 23 c 10.689 0 19.64 -7.306 22.22 -17.188 c -0.155 -0.016 -0.313 -0.045 -0.469 -0.063 c 0.492 -1.844 0.781 -3.782 0.781 -5.781 c 0 -12.351 -10.02 -22.344 -22.375 -22.344 z m 22.844 22.375 c 0 0.488 -0.03 0.959 -0.063 1.438 c 0.029 -0.476 0.063 -0.954 0.063 -1.438 z" fill="#26abcf" stroke="none" fill-opacity="1"/><path d="m 10.688 5.281 c -0.339 0.241 -0.675 0.492 -1 0.75 c 0.327 -0.262 0.659 -0.506 1 -0.75 z m -1 0.75 c -0.319 0.254 -0.632 0.511 -0.938 0.781 c 0.302 -0.269 0.622 -0.529 0.938 -0.781 z m -3.563 3.531 c -0.473 0.585 -0.929 1.181 -1.344 1.813 c 10.508 9.913 27.759 17.05 41.469 18.438 c 0.25 -0.958 0.435 -1.936 0.563 -2.938 c -13.239 -1.2 -29.945 -7.893 -40.688 -17.313 z" fill="#71d5ec" fill-rule="nonzero" stroke="none" fill-opacity="1"/><path d="m 24 1 c -7.226 0 -13.659 3.352 -17.875 8.563 c 10.743 9.42 27.449 16.11 40.688 17.313 c 0.118 -0.944 0.188 -1.898 0.188 -2.875 c 0 -12.703 -10.297 -23 -23 -23 z" fill="#5bccea" fill-rule="nonzero" stroke="none" fill-opacity="1"/><g><path d="m 40.03 7.531 c 3.712 4.084 5.969 9.514 5.969 15.469 0 12.703 -10.297 23 -23 23 c -5.954 0 -11.384 -2.256 -15.469 -5.969 4.178 4.291 10.01 6.969 16.469 6.969 c 12.703 0 23 -10.298 23 -23 0 -6.462 -2.677 -12.291 -6.969 -16.469 z" opacity="0.1"/></g></svg>
